dist/img/stack/stack-4.svg

<svg width="110" height="110" viewBox="0 0 110 110" fill="none" xmlns="http://www.w3.org/2000/svg">
<path d="M19.7311 69.3133C18.9725 69.3133 18.3276 69.0606 17.7966 68.555C17.2655 68.0364 17 67.4206 17 66.7077C17 65.9816 17.2655 65.3595 17.7966 64.8409C18.3276 64.3223 18.9725 64.063 19.7311 64.063C20.5024 64.063 21.1536 64.3223 21.6846 64.8409C22.2283 65.3595 22.5002 65.9816 22.5002 66.7077C22.5002 67.4206 22.2283 68.0364 21.6846 68.555C21.1536 69.0606 20.5024 69.3133 19.7311 69.3133Z" fill="#B7B7BE"/>
<path d="M50.059 68.8858H45.1277L32.136 48.3896C31.8073 47.871 31.5353 47.3329 31.3204 46.7755H31.2065C31.3077 47.372 31.3583 48.6489 31.3583 50.6063V68.8858H26.996V41H32.2496L44.8053 61.0101C45.3364 61.8399 45.6778 62.4103 45.8296 62.7214H45.9053C45.779 61.9825 45.7157 60.7315 45.7157 58.9682V41H50.059V68.8858Z" fill="#B7B7BE"/>
<path d="M71.3014 68.8858H56.0337V41H70.6946V44.9282H60.5478V52.8233H69.8981V56.732H60.5478V64.9771H71.3014V68.8858Z" fill="#B7B7BE"/>
<path d="M92.9999 44.9282H85.1858V68.8858H80.6717V44.9282H72.8767V41H92.9999V44.9282Z" fill="#B7B7BE"/>
</svg>

<svg width="110" height="110" viewBox="0 0 110 110" fill="none" xmlns="http://www.w3.org/2000/svg"><path d="M19.731 69.313c-.759 0-1.403-.252-1.934-.758-.532-.519-.797-1.134-.797-1.847 0-.726.265-1.349.797-1.867.53-.519 1.175-.778 1.934-.778.771 0 1.423.26 1.954.778.543.519.815 1.14.815 1.867 0 .713-.272 1.328-.815 1.847-.531.506-1.183.758-1.954.758zm30.328-.427h-4.931L32.136 48.39a9.178 9.178 0 01-.816-1.614h-.114c.102.596.152 1.873.152 3.83v18.28h-4.362V41h5.254l12.555 20.01c.531.83.873 1.4 1.025 1.711h.075c-.126-.738-.19-1.99-.19-3.753V41h4.344v27.886zm21.242 0H56.034V41h14.66v3.928H60.549v7.895h9.35v3.909h-9.35v8.245H71.3v3.909zM93 44.928h-7.814v23.958h-4.514V44.928h-7.795V41H93v3.928z" fill="#B7B7BE"/></svg>
